src/pos-icons/shield-cross.svg

<svg height="24" viewBox="0 0 24 24" width="24" xmlns="http://www.w3.org/2000/svg"><path d="m12 1-9 4v6c0 5.5 3.8 10.7 9 12 5.2-1.3 9-6.5 9-12v-6zm4 9h-3v8h-2v-8h-3v-2h3v-3h2v3h3z"/></svg>

<?xml version="1.0" encoding="UTF-8"?><!DOCTYPE svg PUBLIC "-//W3C//DTD SVG 1.1//EN" "http://www.w3.org/Graphics/SVG/1.1/DTD/svg11.dtd"><svg xmlns="http://www.w3.org/2000/svg" xmlns:xlink="http://www.w3.org/1999/xlink" version="1.1" id="mdi-shield-cross" width="24" height="24" viewBox="0 0 24 24"><path d="M12,1L3,5V11C3,16.5 6.8,21.7 12,23C17.2,21.7 21,16.5 21,11V5L12,1M16,10H13V18H11V10H8V8H11V5H13V8H16V10Z" /></svg>
